X: 112
T: Miss Sandford's Jigg
C: by John Pringle
B: John Pringle "Collection of Reels Strathspeys & Jigs", 1801 p.11#2
Z: 2011 John Chambers <jc:trillian.mit.edu>
Q: "Slowish"
R: jig
M: 6/8
L: 1/8
K: Eb
V: 1
B, |\
E>FE GEB | AFB GEC | ~B,CD EFG | AFF ~F2G |\
EFE GEB | AFd eBG | cAF DEF | GEE E2 :|
|: B |\
eBG ~cde | BGE cAF | DEF GAB | cCC ~C2D |\
EB,G AFd | eBG cAF | GEC AFB | GEE E2 :|
V: 2 clef=bass middle=d
z |\
e3 e3 | [a3e3] [e3c3] | G3 e2=e | f3 B2z |\
e3 e3 | [a3e3] [g3e3] | A3 B3 | e3 E2 :|
|: z |
e2g [a3e3] | g3 [a3f3] | Bcd efg | a3 A2z |
EeB Faf | Gge AcA | Ege fdB | egb e2 :|

%%sep 2 1 500

